X:591
T:Reel 591
M:4/4
K:Dmaj
L:1/8
F|ADFD CDEG|FDAF GECE|FDFD ABAG|FGEF D2D:|c|dcAd BGAF|GEAE GECE|ddcB cdcB|Acde f2dc|ddcd BcAF|GEFD EDB,C|A,DDE FGAd|cABc d2|
